X:239
T: ES HATT EIN BAUR EIN TOECHTERLEIN
N: E0119B
O: Europa, Mitteleuropa, Deutschland, Schlesien
R: erzaehlendes Volks - Lied, Schalk -, Schelmen - Lied, Liebe
M: 3/4
L: 1/8
K: F
C | CFFAcA | AGG2z
G | GAB2c2 | BAA2z
F | FFd3c | Bdc2z
B | AFcBA2 | G2F2z

@@@ Tune index: 3889
